client/public/images/i_marmite.svg

<svg viewBox="0 0 168 168" xmlns="http://www.w3.org/2000/svg"><circle cx="84.13" cy="84" fill="#52c5b9" r="84"/><path d="m115.33 27.75a4.07 4.07 0 0 1 2.67-1.86 4.44 4.44 0 0 1 3.48.67 4.51 4.51 0 0 1 2 3 4.13 4.13 0 0 1 -.7 3.17l-10.6 14.72h-8.91zm-24.48 1.14a5.87 5.87 0 1 1 -5.85 5.87 5.87 5.87 0 0 1 5.85-5.87zm-21.39-10a8.53 8.53 0 1 1 -8.53 8.53 8.54 8.54 0 0 1 8.53-8.5zm-23.95 31.69h77v8.78h-77zm3.84 16.72h69.3c9.74 8.63 15.1 20.17 15.1 32.56a42.54 42.54 0 0 1 -9.38 26.47l-4.74-5.33-4.41-5-4.41 5-6.35 7.18-6.35-7.18-4.41-5-4.41 5-6.35 7.18-6.35-7.18-4.41-5-4.41 5-6.35 7.18-6.35-7.18-4.41-5-4.41 5-3.6 4.08a42.38 42.38 0 0 1 -8.4-25.2c.01-12.41 5.36-23.95 15.1-32.58zm-14.11 69.19h5.15l10.28-11.63 10.75 12.14 10.76-12.17 10.76 12.17 10.76-12.14 10.76 12.14 10.75-12.17 10.28 11.63h5.15v8.59h-95.4z" fill="#1d327f"/></svg>

<svg xmlns="http://www.w3.org/2000/svg" viewBox="0 0 168 168">
    <circle cx="84.13" cy="84" r="84" style="fill: #52c5b9"/>
    <path d="M115.33,27.75A4.07,4.07,0,0,1,118,25.89a4.44,4.44,0,0,1,3.48.67,4.51,4.51,0,0,1,2,3,4.13,4.13,0,0,1-.7,3.17l-10.6,14.72h-8.91ZM90.85,28.89A5.87,5.87,0,1,1,85,34.76,5.87,5.87,0,0,1,90.85,28.89Zm-21.39-10a8.53,8.53,0,1,1-8.53,8.53A8.54,8.54,0,0,1,69.46,18.92ZM45.51,50.58h77v8.78h-77ZM49.35,67.3h69.3c9.74,8.63,15.1,20.17,15.1,32.56a42.54,42.54,0,0,1-9.38,26.47L119.63,121l-4.41-5-4.41,5-6.35,7.18L98.11,121l-4.41-5-4.41,5-6.35,7.18L76.59,121l-4.41-5-4.41,5-6.35,7.18L55.07,121l-4.41-5-4.41,5-3.6,4.08a42.38,42.38,0,0,1-8.4-25.2C34.26,87.47,39.61,75.93,49.35,67.3ZM35.24,136.49h5.15l10.28-11.63L61.42,137l10.76-12.17L82.94,137,93.7,124.86,104.46,137l10.75-12.17,10.28,11.63h5.15v8.59H35.24Z" style="fill: #1d327f"/>
</svg>
